X:1
T:God Is Love, 83.83.88.83
T:Edmund Simon Lorenz, 1886
T:God Is Love, 83.83.88.83
T:Public Domain
C:Edmund Simon Lorenz, 1886
Z:Public Domain
%%score ( 1 2 ) ( 3 4 )
L:1/8
M:4/4
K:D
V:1 treble 
V:2 treble 
V:3 bass 
V:4 bass 
V:1
 D2 [DF]>[EG] [FA]2 [FA]2 | B2 c2 [Fd]4 | [Ge]4 [Ec]4 | [Fd]8 | D2 [DF]>[EG] [FA]2 [FA]2 | %5
 B2 c2 [Fd]4 | [Ac]4 [^GB]4 | [EA]8 | [EG]2 [EG]>[DF] [CE]2 [EG]2 | [DF]2 [Fd]2 (A2 F2) | %10
 [EG]2 [EG]>[DF] [CE]2 [EG]2 | [DF]2 [Fd]2 [FA]4 | [Fd]2 [Fd]>[Gd] [Ad]2 [Fd]2 | e2 d2 (c2 B2) | %14
 [FA]4 (A2 G2) | [Fd]8 ||"^Refrain" [FA]4 [FB]4 | [EG]8 | [EG]4 [EA]4 | [DF]8 |] %20
V:2
 D2 x6 | G4 x4 | x8 | x8 | D2 x6 | G4 x4 | x8 | x8 | x8 | x4 A4 | x8 | x8 | x8 | G4 ^E4 | x4 e4 | %15
 x8 || x8 | x8 | x8 | x8 |] %20
V:3
 [D,F,]2 [D,A,]2 [D,D]4 | [G,D]2 [E,E]2 [B,D]4 | [G,B,]4 A,4 | [D,A,]8 | [D,F,]2 [D,A,]2 [D,D]4 | %5
 [G,D]2 [E,E]2 [B,D]4 | [E,E]4 [E,D]4 | [A,C]8 | A,6 [A,C]2 | D2 A,2 (F,2 D,2) | A,6 [A,C]2 | %11
 D2 A,2 [D,D]4 | [D,A,]2 D,>E, [F,A,]2 [D,A,]2 | [G,B,]4 [^G,D]4 | [A,D]4 [A,C]4 | [D,D]8 || %16
 [D,D]4 [B,,^D]4 | (E,2 D,2 C,2 D,2) | [E,B,]4 [A,C]4 | (D,2 D,2) (A,2 F,2) |] %20
V:4
 x8 | x8 | x4 A,4 | x8 | x8 | x8 | x8 | x8 | A,6 x2 | D,4 D4 | A,6 x2 | D,4 x4 | x2 A,2 x4 | x8 | %14
 x8 | x8 || x8 | B,8 | x8 | A,4 A,4 |] %20

